svg/fluentui-system-icons/ic_fluent_mail_28_regular.svg

<svg width="28" height="28" viewBox="0 0 28 28" fill="none" xmlns="http://www.w3.org/2000/svg">
<path d="M6.25 5H21.75C23.483 5 24.8992 6.35646 24.9949 8.06558L25 8.25V19.75C25 21.483 23.6435 22.8992 21.9344 22.9949L21.75 23H6.25C4.51697 23 3.10075 21.6435 3.00514 19.9344L3 19.75V8.25C3 6.51697 4.35645 5.10075 6.06558 5.00514L6.25 5H21.75H6.25ZM23.5 10.905L14.346 15.6654C14.1653 15.7594 13.9558 15.7751 13.7655 15.7124L13.654 15.6654L4.5 10.905V19.75C4.5 20.6682 5.20711 21.4212 6.10647 21.4942L6.25 21.5H21.75C22.6682 21.5 23.4212 20.7929 23.4942 19.8935L23.5 19.75V10.905ZM21.75 6.5H6.25C5.33183 6.5 4.57881 7.20711 4.5058 8.10647L4.5 8.25V9.214L14 14.1547L23.5 9.214V8.25C23.5 7.33183 22.7929 6.57881 21.8935 6.5058L21.75 6.5Z" fill="#212121"/>
</svg>

<svg xmlns="http://www.w3.org/2000/svg" width="28" height="28"><path d="M6.25 5h15.5a3.25 3.25 0 0 1 3.245 3.066L25 8.25v11.5a3.25 3.25 0 0 1-3.066 3.245L21.75 23H6.25a3.25 3.25 0 0 1-3.245-3.066L3 19.75V8.25a3.25 3.25 0 0 1 3.066-3.245L6.25 5h15.5-15.5Zm17.25 5.905-9.154 4.76a.75.75 0 0 1-.58.047l-.112-.047-9.154-4.76v8.845a1.75 1.75 0 0 0 1.606 1.744l.144.006h15.5a1.75 1.75 0 0 0 1.744-1.607l.006-.143v-8.845ZM21.75 6.5H6.25a1.75 1.75 0 0 0-1.744 1.606L4.5 8.25v.964l9.5 4.94 9.5-4.94V8.25a1.75 1.75 0 0 0-1.607-1.744L21.75 6.5Z"/></svg>
